images_sukapura_svg/cmd/sc_framelinecolor.svg

<svg viewBox="0 0 16 16" xmlns="http://www.w3.org/2000/svg" xmlns:xlink="http://www.w3.org/1999/xlink"><linearGradient id="a"><stop offset="0" stop-color="#0040dd"/><stop offset="1" stop-color="#0a84ff"/></linearGradient><linearGradient id="b" gradientUnits="userSpaceOnUse" x1="-2.728813" x2="-2.593221" xlink:href="#a" y1="14.254835" y2="-.321436"/><linearGradient id="c" gradientUnits="userSpaceOnUse" x1="4.338983" x2="3.57961" xlink:href="#d" y1="12.0678" y2="3.389834"/><linearGradient id="d" gradientTransform="translate(-25.830508 -3.59322)" gradientUnits="userSpaceOnUse" x1="14" x2="13.79661" xlink:href="#a" y1="22" y2="2.135593"/><linearGradient id="e" gradientUnits="userSpaceOnUse" x1="5.339059" x2="12.831717" y1="8.271571" y2="8.271571"><stop offset="0" stop-color="#fff"/><stop offset="1" stop-color="#f4f3f5"/></linearGradient><linearGradient id="f" gradientUnits="userSpaceOnUse" x1="11.373043" x2="13.375103" xlink:href="#d" y1="9.467584" y2="6.949374"/>
/&amp;amp;gt;<path d="m1 0c-.554 0-1 .446-1 1v12.332031h1v-12.332031h11.707031c.399059-.3462527.790809-.6792867 1.181641-1z" fill="url(#b)"/><g fill-rule="evenodd" transform="translate(2 1)"><path d="m7.783 4.0000054-1.8027613.018682-3.0251138.061335h-.00781c-.9356626.0347179-1.5380972.5124434-1.7734667 1.0125724-.23536957.5001291-.18812052 1.0060873-.18554966 1.1134571v4.3921781l.001953-.04297c-.044035.459305.18651863.881152.50977323 1.120929.3232546.239778.7136644.341366 1.101579.347488.3879147.0061-.3059782-.10633.024956-.341566.3309345-.235245.4001213-.659978.365629-1.124666l.00195.0355.013672-3.9456741z" fill="url(#c)"/><g fill="#fff" stroke="#808080" transform="matrix(.8660254 -.5 .5 .8660254 -2.969475 5.682784)"><path d="m5.6904886 4.7424399.040342 6.2387311c.022018.446426.2871608.766223.7082169.787916l5.2664615.0338c.418343-.02818.777535-.32735.777057-.771261l-.04039-6.2458571z" fill="url(#e)" stroke="#98989d"/><path d="m4.841884 6.004626h8.533219v1.889495h-8.533219z" fill="url(#f)" stroke="none"/></g></g><g stroke="#69696e" stroke-linecap="round" transform="matrix(.66667 0 0 .66667 1.174462 4.795754)"><ellipse cx="9.302972" cy="11.735798" fill="#fff" rx="2.325009" ry="2.309979" stroke-width="1.500022" transform="matrix(.86821741 -.49618397 .50382625 .86380502 0 0)"/><path d="m13.988237 2.5563559v-3.7163058c0-2.7660537 4.499978-2.9789886 4.499978-.1792983v2.3956118" fill="none" stroke-width="1.499992"/></g></svg>

<?xml version="1.0" encoding="UTF-8" standalone="no"?>
<svg
   xmlns:dc="http://purl.org/dc/elements/1.1/"
   xmlns:cc="http://creativecommons.org/ns#"
   xmlns:rdf="http://www.w3.org/1999/02/22-rdf-syntax-ns#"
   xmlns:svg="http://www.w3.org/2000/svg"
   xmlns="http://www.w3.org/2000/svg"
   xmlns:xlink="http://www.w3.org/1999/xlink"
   xmlns:sodipodi="http://sodipodi.sourceforge.net/DTD/sodipodi-0.dtd"
   xmlns:inkscape="http://www.inkscape.org/namespaces/inkscape"
   viewBox="0 0 16 16"
   version="1.1"
   id="svg10"
   sodipodi:docname="sc_framelinecolor.svg"
   inkscape:version="0.92.3 (2405546, 2018-03-11)"><metadata
   id="metadata16">
  <rdf:RDF>
    <cc:Work
       rdf:about="">
      <dc:format>image/svg+xml</dc:format>
      <dc:type
         rdf:resource="http://purl.org/dc/dcmitype/StillImage" />
      <dc:title></dc:title>
    </cc:Work>
  </rdf:RDF>
</metadata>
<defs
   id="defs14">
  <linearGradient
     gradientTransform="translate(-11,-1)"
     id="a"
     gradientUnits="userSpaceOnUse"
     x1="14"
     x2="13.79661"
     y1="22"
     y2="2.1355929">
    <stop
       offset="0"
       stop-color="#0040dd"
       id="stop1492" />
    <stop
       offset="1"
       stop-color="#0a84ff"
       id="stop1494" />
  </linearGradient>
  <linearGradient
     inkscape:collect="always"
     xlink:href="#a"
     id="linearGradient843"
     x1="8.2711868"
     y1="15.254835"
     x2="8.4067793"
     y2="0.67856407"
     gradientUnits="userSpaceOnUse" />
  <linearGradient
     inkscape:collect="always"
     xlink:href="#a-3"
     id="linearGradient871"
     x1="4.3389831"
     y1="12.0678"
     x2="3.5796101"
     y2="3.3898335"
     gradientUnits="userSpaceOnUse" />
  <linearGradient
     gradientTransform="translate(-25.830508,-3.5932203)"
     id="a-3"
     gradientUnits="userSpaceOnUse"
     x1="14"
     x2="13.79661"
     y1="22"
     y2="2.1355929">
    <stop
       offset="0"
       stop-color="#0040dd"
       id="stop2-6" />
    <stop
       offset="1"
       stop-color="#0a84ff"
       id="stop4-7" />
  </linearGradient>
  <linearGradient
     id="a-2"
     gradientUnits="userSpaceOnUse"
     x1="3.8516381"
     x2="14.387326"
     y1="8.3825073"
     y2="8.3825073"
     gradientTransform="matrix(0.71116935,0,0,0.71116935,2.5998922,2.3101888)">
    <stop
       offset="0"
       stop-color="#fff"
       id="stop2" />
    <stop
       offset="1"
       stop-color="#f4f3f5"
       id="stop4" />
  </linearGradient>
  <linearGradient
     inkscape:collect="always"
     xlink:href="#a-3"
     id="linearGradient863"
     x1="11.373043"
     y1="9.4675837"
     x2="13.375103"
     y2="6.9493737"
     gradientUnits="userSpaceOnUse" />
</defs>
<sodipodi:namedview
   pagecolor="#ffffff"
   bordercolor="#666666"
   borderopacity="1"
   objecttolerance="10"
   gridtolerance="10"
   guidetolerance="10"
   inkscape:pageopacity="0"
   inkscape:pageshadow="2"
   inkscape:window-width="1366"
   inkscape:window-height="685"
   id="namedview12"
   showgrid="true"
   inkscape:snap-global="true"
   inkscape:zoom="7.375"
   inkscape:cx="-15.49069"
   inkscape:cy="-5.2180797"
   inkscape:window-x="0"
   inkscape:window-y="0"
   inkscape:window-maximized="1"
   inkscape:current-layer="svg10">
  <inkscape:grid
     type="xygrid"
     id="grid1631"
     spacingx="0.5"
     spacingy="0.5"
     empspacing="2" />
</sodipodi:namedview>
/&gt;<path
   d="M 1,0 C 0.446,0 0,0.446 0,1 V 13.332031 H 1 V 1 H 12.707031 C 13.10609,0.6537473 13.49784,0.3207133 13.888672,0 Z"
   id="path4"
   style="fill:url(#linearGradient843);fill-opacity:1"
   inkscape:connector-curvature="0"
   sodipodi:nodetypes="sscccccs" />
<g
   id="g1629"
   transform="translate(2,1)">
  <g
     id="g15"
     style="fill-rule:evenodd">
    <path
       style="fill:url(#linearGradient871);fill-opacity:1"
       id="path7"
       d="m 7.783,4.0000054 -1.8027613,0.018682 -3.0251138,0.061335 h -0.00781 C 2.0116523,4.1147403 1.4092177,4.5924658 1.1738482,5.0925948 0.93847863,5.5927239 0.98572768,6.0986821 0.98829854,6.2060519 V 10.59823 l 0.001953,-0.04297 c -0.044035,0.459305 0.18651863,0.881152 0.50977323,1.120929 0.3232546,0.239778 0.7136644,0.341366 1.101579,0.347488 0.3879147,0.0061 -0.3059782,-0.10633 0.024956,-0.341566 0.3309345,-0.235245 0.4001213,-0.659978 0.365629,-1.124666 l 0.00195,0.0355 0.013672,-3.9456741 z"
       inkscape:connector-curvature="0"
       sodipodi:nodetypes="ccccscccccccccc" />
    <g
       id="g13"
       transform="rotate(-30,9.1194817,8.3825078)"
       style="fill:#ffffff;stroke:#808080">
      <path
         style="fill:url(#a-2);stroke:#98989d;stroke-width:1;stroke-miterlimit:4;stroke-dasharray:none;stroke-opacity:1"
         id="path9"
         d="m 5.6904886,4.7424399 0.040342,6.2387311 c 0.022018,0.446426 0.2871608,0.766223 0.7082169,0.787916 l 5.2664615,0.0338 c 0.418343,-0.02818 0.777535,-0.32735 0.777057,-0.771261 l -0.04039,-6.2458571 z"
         inkscape:connector-curvature="0" />
      <path
         style="fill:url(#linearGradient863);fill-opacity:1;stroke:none"
         id="path11"
         d="m 4.841884,6.004626 h 8.533219 V 7.894121 H 4.841884 Z"
         inkscape:connector-curvature="0" />
    </g>
  </g>
  <g
     transform="matrix(0.66667,0,0,0.66667,-0.82553829,3.7957541)"
     id="g840">
    <ellipse
       cx="9.3029718"
       cy="11.735798"
       rx="2.3250091"
       ry="2.309979"
       transform="matrix(0.86821741,-0.49618397,0.50382625,0.86380502,0,0)"
       id="ellipse8"
       style="fill:#ffffff;fill-opacity:1;stroke:#69696e;stroke-width:1.5000217;stroke-linecap:round;stroke-miterlimit:4;stroke-dasharray:none;stroke-opacity:1" />
    <path
       d="m 13.988237,2.5563559 v -3.7163058 c 0,-2.7660537 4.499978,-2.9789886 4.499978,-0.1792983 v 2.3956118"
       id="path10"
       style="fill:none;stroke:#69696e;stroke-width:1.49999249;stroke-linecap:round;stroke-miterlimit:4;stroke-dasharray:none;stroke-opacity:1"
       inkscape:connector-curvature="0"
       sodipodi:nodetypes="cssc" />
  </g>
</g>
</svg>
